folder-music-outline.svg

<svg fill="currentColor" viewBox="0 0 24 24"><path d="M22 8v3h-2V8H4v10h9.78c-.4.59-.65 1.26-.74 2H4a2 2 0 0 1-2-2V6c0-1.11.89-2 2-2h6l2 2h8a2 2 0 0 1 2 2m-3.5 5v5.21a2.5 2.5 0 1 0-1 4.79 2.5 2.5 0 0 0 2.5-2.5V15h2v-2z"/></svg>

<svg  viewBox="0 0 24 24" fill="currentColor"><path  d="M22 8V11H20V8H4V18H13.78C13.38 18.59 13.13 19.26 13.04 20H4C2.9 20 2 19.11 2 18V6C2 4.89 2.89 4 4 4H10L12 6H20C21.1 6 22 6.89 22 8M18.5 13V18.21C18.19 18.07 17.86 18 17.5 18C16.12 18 15 19.12 15 20.5S16.12 23 17.5 23 20 21.88 20 20.5V15H22V13H18.5Z"/></svg>
